X:160
T:Jenny Rocking the Cradle
Z: id:dc-reel-147
M:C
L:1/8
K:D Major
FE|DFFd AFFA|DFFd ABAF|DFFd AFFA|BEEF G2:|!
FE|DFAF BFAF|DFAF ABAF|DFAF BFAF|BEEF G2:|!
FE|DFAB =cBAF|DFAF ABAF|DFAB =cBAc|BEEF G2FE|!
DFAB =cBAF|DFAF ABAc|dBcA BGAF|BEEF G2|]!
FE|DFdf ecdF|DFdF ABAF|DFdf ecdA|BEEF G2:|!
eg|fdd2 Add2|fdde fgag|fdd2 Add2|eAce g2:|!
eg|fdec dBAF|DFAF BFAg|fdec dBAF|BEEF G2:|!
Bc|dAFA DAFA|dAFG A2Bc|dAFA DAFA|BEEF G2Bc|!
dAFA DAFA|dAFG A2Bc|dBcA BGAF|BEEF G2|]!

